world_stage/static/flags/BFA/square.svg

<svg height="800" viewBox="0 0 800 800" width="800" xmlns="http://www.w3.org/2000/svg"><path d="m0 799.99869h800v-799.99867h-800z" fill="#009e49" stroke-width="1.08866"/><path d="m0 399.99935h800v-400.00066333h-800z" fill="#ef2b2d" stroke-width="1.08866"/><g fill="#fcd116" transform="translate(-200)"><path d="m0 0-30.902-95.105 47.553-15.452" transform="matrix(1.3333333 0 0 -1.3333333 600 266.66667)"/><path d="m0 0 30.901-95.105-47.552-15.452" transform="matrix(1.3333333 0 0 -1.3333333 600 266.66667)"/><path d="m0 0h-100v-50" transform="matrix(1.3333333 0 0 -1.3333333 726.80733 358.79747)"/><path d="m0 0-80.901-58.779-29.39 40.451" transform="matrix(1.3333333 0 0 -1.3333333 726.80733 358.79747)"/><path d="m0 0-30.901 95.105-47.553-15.451" transform="matrix(1.3333333 0 0 -1.3333333 678.37107 507.86853)"/><path d="m0 0-80.901 58.778 29.388 40.451" transform="matrix(1.3333333 0 0 -1.3333333 678.37107 507.86853)"/><path d="m0 0 80.901 58.778-29.389 40.451" transform="matrix(1.3333333 0 0 -1.3333333 521.62893 507.86853)"/><path d="m0 0 30.901 95.105 47.553-15.451" transform="matrix(1.3333333 0 0 -1.3333333 521.62893 507.86853)"/><g transform="matrix(1.3333333 0 0 -1.3333333 473.19267 358.79747)"><path d="m0 0 80.901-58.779 29.39 40.451"/><path d="m0 0h100v-50"/></g></g></svg>

<?xml version="1.0" encoding="UTF-8" standalone="no"?>
<svg
   height="800"
   viewBox="0 0 800 800"
   width="800"
   version="1.1"
   id="svg13"
   sodipodi:docname="rect copy.svg"
   inkscape:version="1.4 (e7c3feb1, 2024-10-09)"
   xmlns:inkscape="http://www.inkscape.org/namespaces/inkscape"
   xmlns:sodipodi="http://sodipodi.sourceforge.net/DTD/sodipodi-0.dtd"
   xmlns="http://www.w3.org/2000/svg"
   xmlns:svg="http://www.w3.org/2000/svg">
  <defs
     id="defs13" />
  <sodipodi:namedview
     id="namedview13"
     pagecolor="#ffffff"
     bordercolor="#000000"
     borderopacity="0.25"
     inkscape:showpageshadow="2"
     inkscape:pageopacity="0.0"
     inkscape:pagecheckerboard="0"
     inkscape:deskcolor="#d1d1d1"
     inkscape:current-layer="svg13" />
  <path
     d="M 0,799.99869 H 800 V 1.9997811e-5 H 0 Z"
     fill="#009e49"
     id="path1"
     style="stroke-width:1.08866" />
  <path
     d="M 0,399.99935 H 800 V -0.00131333 H 0 Z"
     fill="#ef2b2d"
     id="path2"
     style="stroke-width:1.08866" />
  <g
     fill="#fcd116"
     id="g13"
     transform="translate(-200)">
    <path
       d="m 0,0 -30.902,-95.105 47.553,-15.452"
       transform="matrix(1.3333333,0,0,-1.3333333,600,266.66667)"
       id="path3" />
    <path
       d="m 0,0 30.901,-95.105 -47.552,-15.452"
       transform="matrix(1.3333333,0,0,-1.3333333,600,266.66667)"
       id="path4" />
    <path
       d="M 0,0 H -100 V -50"
       transform="matrix(1.3333333,0,0,-1.3333333,726.80733,358.79747)"
       id="path5" />
    <path
       d="m 0,0 -80.901,-58.779 -29.39,40.451"
       transform="matrix(1.3333333,0,0,-1.3333333,726.80733,358.79747)"
       id="path6" />
    <path
       d="M 0,0 -30.901,95.105 -78.454,79.654"
       transform="matrix(1.3333333,0,0,-1.3333333,678.37107,507.86853)"
       id="path7" />
    <path
       d="m 0,0 -80.901,58.778 29.388,40.451"
       transform="matrix(1.3333333,0,0,-1.3333333,678.37107,507.86853)"
       id="path8" />
    <path
       d="M 0,0 80.901,58.778 51.512,99.229"
       transform="matrix(1.3333333,0,0,-1.3333333,521.62893,507.86853)"
       id="path9" />
    <path
       d="M 0,0 30.901,95.105 78.454,79.654"
       transform="matrix(1.3333333,0,0,-1.3333333,521.62893,507.86853)"
       id="path10" />
    <g
       transform="matrix(1.3333333,0,0,-1.3333333,473.19267,358.79747)"
       id="g12">
      <path
         d="m 0,0 80.901,-58.779 29.39,40.451"
         id="path11" />
      <path
         d="M 0,0 H 100 V -50"
         id="path12" />
    </g>
  </g>
</svg>
